_includes/icons/color-comments.svg

<svg fill="#666" height="50" viewBox="0 0 48 48" width="50" xmlns="http://www.w3.org/2000/svg"><path d="m39 6h-30c-1.65625 0-3 1.34375-3 3v33l8.554688-8h24.445312c1.65625 0 3-1.34375 3-3v-22c0-1.65625-1.34375-3-3-3z" fill="#673ab7"/><g fill="#d1c4e9"><path d="m10 14h28v2h-28z"/><path d="m10 19h28v2h-28z"/><path d="m10 24h16v2h-16z"/></g></svg>

<svg xmlns="http://www.w3.org/2000/svg" viewBox="0 0 48 48" width="50" height="50" fill="#666"><path d="M 39 6 L 9 6 C 7.34375 6 6 7.34375 6 9 L 6 42 L 14.554688 34 L 39 34 C 40.65625 34 42 32.65625 42 31 L 42 9 C 42 7.34375 40.65625 6 39 6 Z" fill="#673ab7"/><path d="M 10 14 L 38 14 L 38 16 L 10 16 Z" fill="#d1c4e9"/><path d="M 10 19 L 38 19 L 38 21 L 10 21 Z" fill="#d1c4e9"/><path d="M 10 24 L 26 24 L 26 26 L 10 26 Z" fill="#d1c4e9"/></svg>
